X: 21282
T: Kelly's
R: reel
M: 4/4
K: Dmixolydian
ADFD (3EFG AB|cAGE CDEG|AD (3FED EGAB|~c2ec dcAG|ADFD (3EFG AB|cAGE (3EDE G2|AD (3FED EGAB|cAGE ADD2|
Ad~d2 Adfd|ec~c2 Gcec|Ad~d2 Adfa|gf (3efg fd~d2|Ad (3fed adfd|eccB cd (3efg|afge fd~d2|eaag (3efe d^c||

